X:1
T:Title
%%score { ( 1 3 ) | ( 2 4 ) }
L:1/8
Q:1/4=100
M:4/4
K:G
V:1 treble nm="Grand Piano"
V:3 treble 
V:2 treble 
V:4 treble 
V:1
 d2 e2 B>A G>A | B2 [DG]2 E2 D2 | d2 e2 B>A G>B | z4 A4 | d2 e2 B>A G>A | B2 [DG]2 E2 D2 | %6
w: Robert~Harkness * * * * *||||||
 G2 [FA]2 B>c d>B | [GB]2 A2 G4 | d2 e2 z G G2 | B2 GE [G,B,]CB,D | A<[DA] [DG]>A B d3 | %11
w: |||||
 [GB]2 AE [FA]4 | d2 e2 z G G2 | B2 GE [G,B,]CB,D | A<[DA] [DG]>A B d3 | [GB]2 z A G4 |] %16
w: |||||
V:2
 [G,B,G]2 [G,CG]2 [G,DG]>[G,CD] [G,B,D]>[K:bass][G,C] | [G,D]2 [B,,G,]2 [C,G,C]2 [G,B,]2 | %2
 [G,B,G]2 [G,CG]2 [G,DG]>[G,CD] [G,B,D]>[K:bass][G,D] | [E,G,^C]2 [E,G,C]2 [D,D]4 | %4
 [G,B,G]2 [G,CG]2 [G,DG]>[G,CD] [G,B,D]>[K:bass][G,C] | [G,D]2 [B,,G,]2 [C,G,C]2 [G,B,]2 | %6
 [E,B,E]2 [D,D]2[K:treble] [G,DG]>[A,DF] [B,DG]>[G,DG] | [D,D]2 [D,CD]2 [G,B,D]4 | %8
 B,2 C2[K:treble] [G,DG][G,D] [G,D]2 | D2 B,C[K:bass] G,,[G,,E,][G,,D,][G,B,] | %10
 [D,F,D]<[C,F,] [B,,G,]>[D,F,D][K:treble] [G,D] [G,B,G]3 | [E,^C]2 [A,CG]2 z2 =C2 | %12
 B,2[K:treble] C2 [G,DG][G,D] [G,D]2 | D2[K:bass] B,C G,,[G,,E,][G,,D,][G,B,] | %14
 [D,F,D]<[C,F,] [B,,G,]>[D,F,D][K:treble] [G,D] [G,B,G]3 | [D,D]2 [D,C]2 [G,B,D]4 |] %16
V:3
 x8 | x8 | x8 | A2 E2 z2 C2 | x8 | x8 | x8 | x8 | z4 B4 | z4 D4 | x8 | z4 D2 z2 | z4 B4 | z4 D4 | %14
 x8 | z2 D2 z4 |] %16
V:4
 x15/2[K:bass] x/ | x8 | x15/2[K:bass] x/ | z4 F,2 z2 | x15/2[K:bass] x/ | x8 | x4[K:treble] x4 | %7
 x8 | x4[K:treble] x4 | x4[K:bass] x4 | x4[K:treble] x4 | z4 D,4 | x2[K:treble] x6 | %13
 x2[K:bass] x6 | x4[K:treble] x4 | x8 |] %16

